src/assets/outline/CloudChange.svg

<svg width="24" height="24" viewBox="0 0 24 24"  xmlns="http://www.w3.org/2000/svg">
<path d="M14.81 17.0997C14.8 17.0997 14.79 17.0997 14.78 17.0997H8.10999C6.12999 16.9597 5.25 15.4497 5.25 14.0997C5.25 12.9697 5.87001 11.7297 7.20001 11.2697C6.90001 9.76975 7.27001 8.36975 8.26001 7.32975C9.45001 6.07975 11.36 5.58976 13 6.08976C14.46 6.53976 15.51 7.70976 15.92 9.33976C17.17 9.68976 18.16 10.6697 18.57 11.9997C19.03 13.5197 18.61 15.0797 17.47 16.0697C16.75 16.7297 15.8 17.0997 14.81 17.0997ZM8.14001 12.5997C7.12001 12.6897 6.75 13.4597 6.75 14.0997C6.75 14.7497 7.12 15.5297 8.16 15.5997H14.78C15.43 15.5997 16 15.3797 16.46 14.9497C17.3 14.2197 17.35 13.1697 17.13 12.4297C16.91 11.6897 16.28 10.8497 15.19 10.7197C14.86 10.6797 14.6 10.4297 14.54 10.0997C14.32 8.76971 13.61 7.85976 12.55 7.52976C11.46 7.18976 10.13 7.53973 9.34 8.36973C8.56 9.17973 8.39 10.3297 8.84 11.5997C8.98 11.9897 8.78001 12.4197 8.39001 12.5597C8.31001 12.5897 8.18001 12.6097 8.14001 12.5997Z" />
<path d="M9 22.75C4.73 22.75 1.25 19.27 1.25 15C1.25 14.59 1.59 14.25 2 14.25C2.41 14.25 2.75 14.59 2.75 15C2.75 17.96 4.80999 20.44 7.57999 21.09L7.31 20.64C7.1 20.28 7.21001 19.82 7.57001 19.61C7.92001 19.4 8.39001 19.51 8.60001 19.87L9.64999 21.62C9.78999 21.85 9.79 22.14 9.66 22.37C9.52 22.6 9.27 22.75 9 22.75Z" />
<path d="M21.9999 9.75C21.5899 9.75 21.2499 9.41 21.2499 9C21.2499 6.04 19.1899 3.55997 16.4199 2.90997L16.6899 3.35999C16.8999 3.71999 16.7899 4.18001 16.4299 4.39001C16.0799 4.60001 15.6099 4.49001 15.3999 4.13L14.3499 2.38C14.2099 2.15 14.2099 1.86 14.3399 1.63C14.4699 1.39 14.7199 1.25 14.9899 1.25C19.2599 1.25 22.7399 4.73 22.7399 9C22.7499 9.41 22.4099 9.75 21.9999 9.75Z" />
</svg>

<?xml version="1.0" encoding="UTF-8"?>
<svg width="24" height="24" viewBox="0 0 24 24" xmlns="http://www.w3.org/2000/svg">
 <path d="m14.81 17.1h-0.03-6.67c-1.98-0.14-2.86-1.65-2.86-3 0-1.13 0.62001-2.37 1.95-2.83-0.3-1.5 0.07-2.9 1.06-3.94 1.19-1.25 3.1-1.74 4.74-1.24 1.46 0.45 2.51 1.62 2.92 3.25 1.25 0.35 2.24 1.3299 2.65 2.6599 0.46 1.52 0.04 3.08-1.1 4.07-0.72 0.66-1.67 1.03-2.66 1.03zm-6.67-4.5c-1.02 0.09-1.39 0.86-1.39 1.5 0 0.65 0.37 1.43 1.41 1.5h6.62c0.65 0 1.22-0.22 1.68-0.65 0.84-0.73 0.89-1.78 0.67-2.52s-0.85-1.58-1.94-1.71c-0.33-0.04-0.59-0.29-0.65-0.62-0.22-1.33-0.93-2.2399-1.99-2.5699-1.09-0.34-2.42 0.00997-3.21 0.83997-0.78 0.81-0.95 1.96-0.5 3.23 0.14 0.39-0.05999 0.82-0.44999 0.96-0.08 0.03-0.21 0.05-0.25 0.04z"/>
 <path d="m9 22.75c-4.27 0-7.75-3.48-7.75-7.75 0-0.41 0.34-0.75 0.75-0.75s0.75 0.34 0.75 0.75c0 2.96 2.06 5.44 4.83 6.09l-0.26999-0.45c-0.21-0.36-0.09999-0.82 0.26001-1.03 0.35-0.21 0.82-0.1 1.03 0.26l1.05 1.75c0.14 0.23 0.14001 0.52 0.01001 0.75-0.14 0.23-0.39 0.38-0.66 0.38z"/>
 <path d="m22 9.75c-0.41 0-0.75-0.34-0.75-0.75 0-2.96-2.06-5.44-4.83-6.09l0.27 0.45002c0.21 0.36 0.1 0.82002-0.26 1.03-0.35 0.21-0.82 0.1-1.03-0.26001l-1.05-1.75c-0.14-0.23-0.14-0.52-0.01-0.75 0.13-0.24 0.38-0.38 0.65-0.38 4.27 0 7.75 3.48 7.75 7.75 0.01 0.41-0.33 0.75-0.74 0.75z"/>
</svg>
